Newaita/actions/24/distribute-vertical-top.svg

<svg height="24" viewBox="0 0 24 24" width="24" xmlns="http://www.w3.org/2000/svg"><g fill="#424242"><path d="m21.832031 10.605469h-3.972656l1.984375 2.480469zm0 0"/><path d="m16.867188 3.164062c0-.550781-.441407-.992187-.992188-.992187h-4.960938c-.546874 0-.992187.441406-.992187.992187v4.960938c0 .550781.445313.992188.992187.992188h4.960938c.550781 0 .992188-.441407.992188-.992188zm-1.984376 1.488282v1.984375c0 .277343-.21875.496093-.496093.496093h-1.984375c-.273438 0-.496094-.21875-.496094-.496093v-1.984375c0-.273438.222656-.496094.496094-.496094h1.984375c.277343 0 .496093.222656.496093.496094zm0 0"/><path d="m21.832031 2.667969v.992187c0 .273438-.222656.496094-.496093.496094h-18.855469c-.273438 0-.496094-.222656-.496094-.496094v-.992187c0-.273438.222656-.496094.496094-.496094h18.855469c.273437 0 .496093.222656.496093.496094zm0 0"/><path d="m16.867188 16.0625c0-.546875-.441407-.992188-.992188-.992188h-8.433594c-.550781 0-.992187.445313-.992187.992188v4.964844c0 .546875.441406.992187.992187.992187h8.433594c.550781 0 .992188-.445312.992188-.992187zm-1.984376 1.488281v1.984375c0 .277344-.21875.496094-.496093.496094h-5.457031c-.273438 0-.496094-.21875-.496094-.496094v-1.984375c0-.273437.222656-.496093.496094-.496093h5.457031c.277343 0 .496093.222656.496093.496093zm0 0"/><path d="m21.832031 15.566406v.992188c0 .277344-.222656.496094-.496093.496094h-18.855469c-.273438 0-.496094-.21875-.496094-.496094v-.992188c0-.273437.222656-.496094.496094-.496094h18.855469c.273437 0 .496093.222657.496093.496094zm0 0"/><path d="m21.832031 8.621094h-3.972656l1.984375-2.480469zm0 0"/></g></svg>

<svg xmlns="http://www.w3.org/2000/svg" xmlns:xlink="http://www.w3.org/1999/xlink" width="24px" height="24px" viewBox="0 0 24 24" version="1.1">
<g id="surface1">
     <defs>
  <style id="current-color-scheme" type="text/css">
   .ColorScheme-Text { color:#424242; } .ColorScheme-Highlight { color:#eeeeee; }
  </style>
 </defs>
<path style="fill:currentColor" class="ColorScheme-Text" d="M 21.832031 10.605469 L 17.859375 10.605469 L 19.84375 13.085938 Z M 21.832031 10.605469 "/>
     <defs>
  <style id="current-color-scheme" type="text/css">
   .ColorScheme-Text { color:#424242; } .ColorScheme-Highlight { color:#eeeeee; }
  </style>
 </defs>
<path style="fill:currentColor" class="ColorScheme-Text" d="M 16.867188 3.164062 C 16.867188 2.613281 16.425781 2.171875 15.875 2.171875 L 10.914062 2.171875 C 10.367188 2.171875 9.921875 2.613281 9.921875 3.164062 L 9.921875 8.125 C 9.921875 8.675781 10.367188 9.117188 10.914062 9.117188 L 15.875 9.117188 C 16.425781 9.117188 16.867188 8.675781 16.867188 8.125 Z M 14.882812 4.652344 L 14.882812 6.636719 C 14.882812 6.914062 14.664062 7.132812 14.386719 7.132812 L 12.402344 7.132812 C 12.128906 7.132812 11.90625 6.914062 11.90625 6.636719 L 11.90625 4.652344 C 11.90625 4.378906 12.128906 4.15625 12.402344 4.15625 L 14.386719 4.15625 C 14.664062 4.15625 14.882812 4.378906 14.882812 4.652344 Z M 14.882812 4.652344 "/>
     <defs>
  <style id="current-color-scheme" type="text/css">
   .ColorScheme-Text { color:#424242; } .ColorScheme-Highlight { color:#eeeeee; }
  </style>
 </defs>
<path style="fill:currentColor" class="ColorScheme-Text" d="M 21.832031 2.667969 L 21.832031 3.660156 C 21.832031 3.933594 21.609375 4.15625 21.335938 4.15625 L 2.480469 4.15625 C 2.207031 4.15625 1.984375 3.933594 1.984375 3.660156 L 1.984375 2.667969 C 1.984375 2.394531 2.207031 2.171875 2.480469 2.171875 L 21.335938 2.171875 C 21.609375 2.171875 21.832031 2.394531 21.832031 2.667969 Z M 21.832031 2.667969 "/>
     <defs>
  <style id="current-color-scheme" type="text/css">
   .ColorScheme-Text { color:#424242; } .ColorScheme-Highlight { color:#eeeeee; }
  </style>
 </defs>
<path style="fill:currentColor" class="ColorScheme-Text" d="M 16.867188 16.0625 C 16.867188 15.515625 16.425781 15.070312 15.875 15.070312 L 7.441406 15.070312 C 6.890625 15.070312 6.449219 15.515625 6.449219 16.0625 L 6.449219 21.027344 C 6.449219 21.574219 6.890625 22.019531 7.441406 22.019531 L 15.875 22.019531 C 16.425781 22.019531 16.867188 21.574219 16.867188 21.027344 Z M 14.882812 17.550781 L 14.882812 19.535156 C 14.882812 19.8125 14.664062 20.03125 14.386719 20.03125 L 8.929688 20.03125 C 8.65625 20.03125 8.433594 19.8125 8.433594 19.535156 L 8.433594 17.550781 C 8.433594 17.277344 8.65625 17.054688 8.929688 17.054688 L 14.386719 17.054688 C 14.664062 17.054688 14.882812 17.277344 14.882812 17.550781 Z M 14.882812 17.550781 "/>
     <defs>
  <style id="current-color-scheme" type="text/css">
   .ColorScheme-Text { color:#424242; } .ColorScheme-Highlight { color:#eeeeee; }
  </style>
 </defs>
<path style="fill:currentColor" class="ColorScheme-Text" d="M 21.832031 15.566406 L 21.832031 16.558594 C 21.832031 16.835938 21.609375 17.054688 21.335938 17.054688 L 2.480469 17.054688 C 2.207031 17.054688 1.984375 16.835938 1.984375 16.558594 L 1.984375 15.566406 C 1.984375 15.292969 2.207031 15.070312 2.480469 15.070312 L 21.335938 15.070312 C 21.609375 15.070312 21.832031 15.292969 21.832031 15.566406 Z M 21.832031 15.566406 "/>
     <defs>
  <style id="current-color-scheme" type="text/css">
   .ColorScheme-Text { color:#424242; } .ColorScheme-Highlight { color:#eeeeee; }
  </style>
 </defs>
<path style="fill:currentColor" class="ColorScheme-Text" d="M 21.832031 8.621094 L 17.859375 8.621094 L 19.84375 6.140625 Z M 21.832031 8.621094 "/>
</g>
</svg>
